X:223
T:Prima Donna Valse. Le4.223
L:1/4
B:L.Leadley MS#4 c1850
Z:vmp.Mike Hicken 2016 www.village-music-project.org.uk
M:3/4
Q:1/4=220
K:C
{GA}G!p!^FG|{F}c2 E|D3-|D2 z|{GA}FEF|{F}A2B, |C3-|C3{GA}G^FG|e2e|
(e2d)|c2A|{GA}G^FG|A2B,|C3-|C2z|{ga}g^fg|c'2e|d3-|d2z|
{fg}fe(f|a2)B|c3-|c2z|{gb}g^fg|e'2d'|(e'2d')|(c'2a)|(g^fg)|(a2B)|
c3-|c2||c!fine!||d|(d2g)|(b2d')|(d'2c')|a2^f|(^f2a)|(c'2e')|(e'2d')|b2d|
(d2g)|b2d'|f'3|e'2c'|e'3|d'2a|(c'3|b)zd|(d2g)|b2d'|(d'2c')|a2 ^f|
(^f2a)|(c'2e')|(e'2d')|(b2d)|(d2g)|b2d'|^f'3|e'2c'|e'3|d'2^f|g3-|g2 "Da Capo"G |]

